X: 9933
T: Devanny's Goat
R: reel
M: 4/4
K: Dmajor
DFAB AFAB|defe dBAF|DFAF BFAF|E3 F E3 F|
~A3 B AFAB|defe dBAg|fedB AF ~F2|1 AFEG FD DE:|2 AFEG FD Df||
|:~a2 ab afdf|~a2 fd edBd|ABde fd ~d2|gefd edBd|
ABde fd ~d2|gefd edBd|~A2 dB AF ~F2|AFEG FD ~D2:|

